; HEADER_BLOCK_START
; generated by AnycubicSlicerNext 1.3.5.3 on 2025-07-15 at 00:37:22
; total layer number: 56
; filament_density: 1.24
; filament_diameter: 1.75
; max_z_height: 11.20
; exclude_object: 1
; model_instances: 1
; source_info: {"models":[{"file_source":0,"mo_file_id":-1,"name":"bread_board_holder.stl_id_0_copy_0"}],"models_from":0,"plate_index":1,"slice_paras_process":2,"software_version":"AnycubicSlicerNext 1.3.5.3 20250605160757"}
; HEADER_BLOCK_END

; THUMBNAIL_BLOCK_START
; THUMBNAIL_BLOCK_END

; THUMBNAIL_BLOCK_START
; THUMBNAIL_BLOCK_END

; external perimeters extrusion width = 0.42mm
; perimeters extrusion width = 0.45mm
; infill extrusion width = 0.45mm
; solid infill extrusion width = 0.42mm
; top infill extrusion width = 0.42mm
; first layer extrusion width = 0.50mm

; EXECUTABLE_BLOCK_START
; EXCLUDE_OBJECT_DEFINE NAME=bread_board_holder.stl_id_0_copy_0 CENTER=125,125 POLYGON=[[73,89.001],[177,89.001],[177,160.999],[73,160.999],[73,89.001]]
M201 X10000 Y10000 Z500 E5000 ; sets machine_max_acceleration_x, y, z, e (mm/sec^2)
M203 X600 Y600 Z15 E80 ; sets machine_max_speed_x, y, z, e (mm/sec)
M204 P20000 R5000 T20000 ; sets machine_max_acceleration(mm/sec^2) M204 P[print] R[retract] T[travel]
M205 X9.00 Y9.00 Z3.00 E2.50 ; sets the jerk limits, mm/sec
M106 S0
M106 P2 S0
M117
M106 P3 S153
G90
G21
M83 ; use relative distances for extrusion
; filament start gcode
M900 K0.032; Override pressure advance value
M106 S0
M106 P2 S0
;LAYER_CHANGE
;Z:0.2
;HEIGHT:0.2
; BEFORE_LAYER_CHANGE 0 @ 0.2mm
G1 E-.5 F1800
; AFTER_LAYER_CHANGE 0 @ 0.2mm
M204 P500
G1 Z0.200 ; for object exclusion
G1 X70.721 Y85.689 F18000
G1 Z.2
G1 E.5 F1800
;TYPE:Brim
;WIDTH:0.5
G1 F3000
G1 X71.266 Y85.356 E.02332
G1 X72.052 Y85.045 E.03084
G1 X72.732 Y84.899 E.02536
G1 X73.309 Y84.861 E.02113
G1 X176.691 Y84.859 E3.77198
G1 X177.339 Y84.907 E.02372
G1 X177.962 Y85.048 E.02329
G1 X178.805 Y85.405 E.03341
G1 X179.424 Y85.801 E.02681
G1 X179.902 Y86.227 E.02338
G1 X180.314 Y86.72 E.02341
G1 X180.646 Y87.265 E.02329
G1 X180.972 Y88.103 E.03282
G1 X181.103 Y88.731 E.02338
G1 X181.142 Y89.309 E.02116
G1 X181.14 Y160.689 E2.60436
G1 X181.092 Y161.337 E.02372
G1 X180.952 Y161.96 E.02329
G1 X180.595 Y162.803 E.03341
G1 X180.198 Y163.421 E.02681
G1 X179.772 Y163.9 E.02338
G1 X179.279 Y164.311 E.02341
G1 X178.734 Y164.644 E.02332
G1 X177.948 Y164.955 E.03083
G1 X177.268 Y165.101 E.02536
G1 X176.69 Y165.139 E.02113
G1 X73.31 Y165.139 E3.77193
G1 X72.662 Y165.091 E.02372
G1 X72.039 Y164.951 E.02329
G1 X71.196 Y164.594 E.03341
G1 X70.578 Y164.197 E.02681
G1 X70.099 Y163.771 E.02338
G1 X69.688 Y163.278 E.02341
G1 X69.355 Y162.733 E.02332
G1 X69.044 Y161.947 E.03084
G1 X68.898 Y161.267 E.02536
G1 X68.86 Y160.689 E.02113
G1 X68.86 Y89.311 E2.6043
G1 X68.908 Y88.663 E.02372
G1 X69.048 Y88.04 E.02329
G1 X69.405 Y87.197 E.03341
G1 X69.802 Y86.579 E.02681
G1 X70.228 Y86.1 E.02338
G1 X70.69 Y85.714 E.02196
G1 X70.98 Y86.068 F18000
G1 F3000
G1 X71.482 Y85.762 E.02144
G1 X72.175 Y85.488 E.02718
G1 X72.785 Y85.355 E.02281
G1 X73.329 Y85.318 E.01989
G1 X176.679 Y85.317 E3.77084
G1 X177.262 Y85.36 E.02131
G1 X177.809 Y85.482 E.02047
G1 X178.581 Y85.806 E.03052
G1 X179.138 Y86.161 E.0241
G1 X179.566 Y86.54 E.02084
G1 X179.946 Y86.996 E.02168
G1 X180.239 Y87.48 E.02065
G1 X180.535 Y88.245 E.02993
G1 X180.648 Y88.783 E.02006
G1 X180.685 Y89.329 E.01995
G1 X180.683 Y160.667 E2.60284
G1 X180.64 Y161.259 E.02169
G1 X180.518 Y161.807 E.02047
G1 X180.193 Y162.578 E.03052
G1 X179.825 Y163.153 E.02489
G1 X179.445 Y163.577 E.0208
G1 X179.02 Y163.932 E.0202
G1 X178.518 Y164.238 E.02144
G1 X177.825 Y164.512 E.02718
G1 X177.215 Y164.645 E.02281
G1 X176.671 Y164.682 E.01989
G1 X73.332 Y164.682 E3.77041
G1 X72.74 Y164.639 E.02168
G1 X72.192 Y164.517 E.02047
G1 X71.421 Y164.192 E.03052
G1 X70.847 Y163.824 E.02489
G1 X70.422 Y163.444 E.0208
G1 X70.067 Y163.019 E.0202
G1 X69.761 Y162.517 E.02144
G1 X69.487 Y161.824 E.02719
G1 X69.354 Y161.214 E.02281
G1 X69.317 Y160.67 E.01989
G1 X69.317 Y89.333 E2.60279
G1 X69.36 Y88.741 E.02168
G1 X69.482 Y88.193 E.02047
G1 X69.807 Y87.422 E.03052
G1 X70.175 Y86.848 E.02489
G1 X70.555 Y86.423 E.0208
G1 X70.949 Y86.094 E.01874
G1 X71.239 Y86.447 F18000
G1 F3000
G1 X71.697 Y86.169 E.01957
G1 X72.298 Y85.931 E.02358
G1 X72.84 Y85.811 E.02027
G1 X73.349 Y85.775 E.01863
G1 X176.667 Y85.774 E3.76966
G1 X177.185 Y85.813 E.01893
G1 X177.658 Y85.916 E.01768
G1 X178.357 Y86.208 E.02763
G1 X178.853 Y86.521 E.0214
G1 X179.229 Y86.852 E.01828
G1 X179.567 Y87.254 E.01914
G1 X179.832 Y87.693 E.01873
G1 X180.098 Y88.386 E.02707
G1 X180.194 Y88.855 E.01748
G1 X180.228 Y89.349 E.01805
G1 X180.226 Y160.645 E2.60131
G1 X180.187 Y161.183 E.01967
G1 X180.083 Y161.656 E.01767
G1 X179.792 Y162.354 E.0276
G1 X179.453 Y162.883 E.02293
G1 X179.133 Y163.24 E.01748
G1 X178.761 Y163.553 E.01773
G1 X178.303 Y163.831 E.01957
G1 X177.702 Y164.069 E.02358
G1 X177.16 Y164.189 E.02027
G1 X176.651 Y164.225 E.01863
G1 X73.354 Y164.225 E3.76888
G1 X72.817 Y164.186 E.01967
G1 X72.343 Y164.082 E.01767
G1 X71.645 Y163.791 E.0276
G1 X71.116 Y163.452 E.02294
G1 X70.759 Y163.133 E.01748
G1 X70.446 Y162.76 E.01773
G1 X70.168 Y162.302 E.01957
G1 X69.93 Y161.701 E.02358
G1 X69.81 Y161.159 E.02027
G1 X69.774 Y160.65 E.01863
G1 X69.774 Y89.355 E2.60125
G1 X69.813 Y88.818 E.01967
G1 X69.917 Y88.344 E.01767
G1 X70.208 Y87.646 E.0276
G1 X70.547 Y87.117 E.02294
G1 X70.866 Y86.76 E.01748
G1 X71.208 Y86.473 E.01627
G1 X71.498 Y86.826 F18000
G1 F3000
G1 X71.912 Y86.575 E.01768
G1 X72.422 Y86.373 E.02001
G1 X72.896 Y86.267 E.01773
G1 X73.37 Y86.232 E.01735
G1 X176.655 Y86.232 E3.76847
G1 X177.109 Y86.265 E.01659
G1 X177.508 Y86.351 E.0149
G1 X178.135 Y86.61 E.02474
G1 X178.569 Y86.883 E.0187
G1 X178.894 Y87.166 E.01571
G1 X179.187 Y87.512 E.01656
G1 X179.424 Y87.906 E.01677
G1 X179.66 Y88.526 E.0242
G1 X179.741 Y88.926 E.01491
G1 X179.771 Y89.369 E.01618
G1 X179.769 Y160.623 E2.59979
G1 X179.734 Y161.107 E.01769
G1 X179.648 Y161.506 E.01489
G1 X179.39 Y162.13 E.02466
G1 X179.08 Y162.614 E.02096
G1 X178.807 Y162.918 E.0149
G1 X178.502 Y163.174 E.01453
G1 X178.088 Y163.425 E.01768
G1 X177.578 Y163.627 E.02001
G1 X177.104 Y163.733 E.01773
G1 X176.63 Y163.768 E.01735
G1 X73.376 Y163.768 E3.76733
G1 X72.892 Y163.733 E.01769
G1 X72.494 Y163.647 E.01489
G1 X71.869 Y163.389 E.02465
G1 X71.385 Y163.079 E.02096
G1 X71.081 Y162.806 E.0149
G1 X70.825 Y162.501 E.01453
G1 X70.574 Y162.087 E.01768
G1 X70.372 Y161.577 E.02001
G1 X70.266 Y161.103 E.01773
G1 X70.231 Y160.629 E.01735
G1 X70.231 Y89.377 E2.5997
G1 X70.266 Y88.893 E.01769
G1 X70.352 Y88.495 E.01489
G1 X70.61 Y87.87 E.02465
G1 X70.92 Y87.386 E.02096
G1 X71.193 Y87.082 E.0149
G1 X71.467 Y86.852 E.01307
G1 X71.76 Y87.205 F18000
G1 F3000
G1 X71.774 Y87.194 E.00064
G1 X72.127 Y86.982 E.01502
G1 X72.547 Y86.815 E.0165
G1 X72.953 Y86.722 E.0152
G1 X73.392 Y86.689 E.01605
G1 X176.644 Y86.689 E3.76725
G1 X177.034 Y86.718 E.01428
G1 X177.383 Y86.794 E.01303
G1 X177.934 Y87.024 E.02181
G1 X178.287 Y87.245 E.01517
G1 X178.559 Y87.481 E.01314
G1 X178.82 Y87.789 E.01473
G1 X179.016 Y88.118 E.01398
G1 X179.221 Y88.665 E.0213
G1 X179.288 Y88.997 E.01235
G1 X179.313 Y89.389 E.01434
G1 X179.312 Y160.602 E2.59829
G1 X179.281 Y161.032 E.01574
G1 X179.213 Y161.357 E.01211
G1 X178.988 Y161.907 E.02168
G1 X178.708 Y162.345 E.01895
G1 X178.482 Y162.594 E.0123
G1 X178.226 Y162.807 E.01212
G1 X177.873 Y163.018 E.01502
G1 X177.453 Y163.185 E.01649
G1 X177.047 Y163.278 E.0152
G1 X176.608 Y163.311 E.01605
G1 X73.397 Y163.311 E3.76576
G1 X72.967 Y163.28 E.01574
G1 X72.642 Y163.212 E.01211
G1 X72.092 Y162.987 E.02168
G1 X71.654 Y162.707 E.01895
G1 X71.405 Y162.481 E.01229
G1 X71.193 Y162.225 E.01212
G1 X70.981 Y161.872 E.01502
G1 X70.814 Y161.452 E.01649
G1 X70.721 Y161.046 E.0152
G1 X70.688 Y160.607 E.01605
G1 X70.688 Y89.398 E2.59813
G1 X70.719 Y88.968 E.01574
G1 X70.787 Y88.643 E.01211
G1 X71.012 Y88.093 E.02168
G1 X71.292 Y87.655 E.01895
G1 X71.518 Y87.406 E.0123
G1 X71.73 Y87.23 E.01002
G1 X72 Y87.619 F18000
G1 F3000
G1 X72.257 Y87.44 E.01145
G1 X72.581 Y87.287 E.01304
G1 X72.949 Y87.187 E.01393
G1 X73.337 Y87.146 E.01422
G1 X176.738 Y87.15 E3.77272
G1 X177.109 Y87.201 E.01366
G1 X177.351 Y87.263 E.0091
G1 X177.924 Y87.555 E.02346
G1 X178.023 Y87.624 E.00439
G1 X178.26 Y87.846 E.01186
G1 X178.464 Y88.102 E.01195
G1 X178.67 Y88.475 E.01555
G1 X178.774 Y88.761 E.01111
G1 X178.847 Y89.274 E.01891
G1 X178.855 Y160.663 E2.60471
G1 X178.787 Y161.156 E.01815
G1 X178.615 Y161.64 E.01875
G1 X178.439 Y161.924 E.01218
G1 X178.215 Y162.194 E.0128
G1 X178.076 Y162.329 E.00707
G1 X177.743 Y162.56 E.01479
G1 X177.419 Y162.713 E.01304
G1 X177.051 Y162.813 E.01393
G1 X176.663 Y162.854 E.01422
G1 X73.336 Y162.854 E3.77002
G1 X72.843 Y162.786 E.01814
G1 X72.359 Y162.614 E.01875
G1 X72.075 Y162.438 E.01218
G1 X71.805 Y162.214 E.0128
G1 X71.67 Y162.075 E.00707
G1 X71.439 Y161.742 E.01479
G1 X71.286 Y161.418 E.01304
G1 X71.186 Y161.05 E.01393
G1 X71.145 Y160.662 E.01422
G1 X71.145 Y89.344 E2.60213
G1 X71.201 Y88.899 E.01637
G1 X71.351 Y88.43 E.01797
G1 X71.556 Y88.083 E.01468
G1 X71.784 Y87.808 E.01305
G1 X71.924 Y87.672 E.00712
G1 X71.967 Y87.642 E.00189
G1 X72.24 Y88.001 F18000
G1 F3000
G1 X72.519 Y87.815 E.01223
G1 X72.775 Y87.701 E.01021
G1 X72.992 Y87.642 E.00823
G1 X73.329 Y87.603 E.01238
G1 X159.046 Y87.602 E3.12745
G1 X176.667 Y87.602 E.64295
G1 X177.055 Y87.655 E.0143
G1 X177.24 Y87.706 E.00698
G1 X177.714 Y87.96 E.01963
G1 X177.896 Y88.123 E.0089
G1 X178.113 Y88.396 E.01274
G1 X178.268 Y88.693 E.01221
G1 X178.346 Y88.92 E.00877
G1 X178.39 Y89.264 E.01267
G1 X178.398 Y160.673 E2.60541
G1 X178.357 Y161.003 E.01216
G1 X178.227 Y161.399 E.01518
G1 X178.094 Y161.624 E.00955
G1 X177.859 Y161.907 E.01342
G1 X177.76 Y161.999 E.00492
G1 X177.481 Y162.185 E.01224
G1 X177.225 Y162.299 E.01021
G1 X177.008 Y162.358 E.00823
G1 X176.671 Y162.397 E.01238
G1 X73.326 Y162.397 E3.77063
G1 X72.996 Y162.356 E.01215
G1 X72.6 Y162.226 E.01518
G1 X72.375 Y162.093 E.00955
G1 X72.092 Y161.858 E.01342
G1 X72 Y161.759 E.00492
G1 X71.814 Y161.48 E.01224
G1 X71.7 Y161.224 E.01021
G1 X71.641 Y161.007 E.00823
G1 X71.602 Y160.67 E.01238
G1 X71.602 Y89.335 E2.60271
G1 X71.655 Y88.949 E.01421
G1 X71.787 Y88.567 E.01476
G1 X71.901 Y88.383 E.00789
G1 X72.141 Y88.094 E.01372
G1 X72.211 Y88.029 E.0035
G1 X72.498 Y88.378 F18000
G1 F3000
G1 X72.705 Y88.232 E.00924
G1 X72.902 Y88.14 E.00794
G1 X73.044 Y88.097 E.0054
G1 X73.321 Y88.06 E.01022
G1 X159.046 Y88.059 E3.12774
G1 X176.677 Y88.059 E.64329
G1 X176.993 Y88.107 E.01168
G1 X177.111 Y88.145 E.00451
G1 X177.415 Y88.306 E.01254
G1 X177.548 Y88.418 E.00636
G1 X177.702 Y88.595 E.00856
G1 X177.868 Y88.913 E.01307
G1 X177.911 Y89.058 E.00553
G1 X177.933 Y89.256 E.00725
G1 X177.941 Y160.681 E2.60604
G1 X177.922 Y160.863 E.00666
G1 X177.828 Y161.177 E.01197
G1 X177.75 Y161.323 E.00605
G1 X177.502 Y161.621 E.01416
G1 X177.295 Y161.768 E.00924
G1 X177.098 Y161.86 E.00794
G1 X176.956 Y161.903 E.0054
G1 X176.679 Y161.94 E.01022
G1 X73.318 Y161.94 E3.77123
G1 X73.136 Y161.921 E.00665
G1 X72.822 Y161.827 E.01197
G1 X72.676 Y161.749 E.00605
G1 X72.378 Y161.501 E.01416
G1 X72.231 Y161.294 E.00924
G1 X72.139 Y161.097 E.00794
G1 X72.096 Y160.955 E.0054
G1 X72.059 Y160.678 E.01022
G1 X72.059 Y89.326 E2.60334
G1 X72.108 Y89.008 E.01174
G1 X72.18 Y88.8 E.00802
G1 X72.246 Y88.682 E.00494
G1 X72.473 Y88.409 E.01294
G1 X72.775 Y88.742 F18000
G1 F3000
G1 X72.888 Y88.651 E.0053
G1 X73.105 Y88.549 E.00874
G1 X73.313 Y88.517 E.00765
G1 X159.046 Y88.516 E3.12806
G1 X176.687 Y88.516 E.64367
G1 X176.917 Y88.558 E.00854
G1 X177.108 Y88.645 E.00767
G1 X177.261 Y88.774 E.00728
G1 X177.351 Y88.888 E.0053
G1 X177.457 Y89.114 E.0091
G1 X177.476 Y89.248 E.00495
G1 X177.484 Y160.688 E2.60658
G1 X177.468 Y160.815 E.00465
G1 X177.392 Y161.04 E.00866
G1 X177.225 Y161.258 E.01002
G1 X177.112 Y161.349 E.0053
G1 X176.895 Y161.451 E.00874
G1 X176.687 Y161.483 E.00766
G1 X73.311 Y161.483 E3.77181
G1 X73.184 Y161.467 E.00465
G1 X72.959 Y161.391 E.00866
G1 X72.741 Y161.224 E.01002
G1 X72.65 Y161.111 E.0053
G1 X72.548 Y160.894 E.00874
G1 X72.516 Y160.686 E.00766
G1 X72.516 Y89.315 E2.60405
G1 X72.559 Y89.082 E.00866
G1 X72.606 Y88.963 E.00465
G1 X72.75 Y88.774 E.0087
G1 X73.049 Y89.108 F18000
G1 F3000
G1 X73.186 Y88.999 E.00638
G1 X73.302 Y88.974 E.00433
G1 X159.046 Y88.973 E3.12844
G1 X176.699 Y88.973 E.64412
G1 X176.81 Y89.002 E.00417
G1 X176.895 Y89.048 E.00353
G1 X177.004 Y89.185 E.00638
G1 X177.019 Y89.238 E.00202
G1 X177.027 Y160.697 E2.60725
G1 X176.998 Y160.808 E.00417
G1 X176.951 Y160.892 E.00353
G1 X176.814 Y161.001 E.00638
G1 X176.698 Y161.026 E.00433
G1 X73.302 Y161.026 E3.77251
G1 X73.191 Y160.997 E.00417
G1 X73.107 Y160.95 E.00353
G1 X72.998 Y160.813 E.00638
G1 X72.973 Y160.697 E.00433
G1 X72.973 Y89.303 E2.60489
G1 X73.002 Y89.192 E.00417
G1 X73.03 Y89.143 E.00207
;WIPE_START
G1 X73.186 Y88.999 E-.10621
G1 X73.302 Y88.974 E-.05939
G1 X73.971 Y88.974 E-.3344
;WIPE_END
G1 X85.929 Y154.528 F18000
G1 E.5 F1800
G1 F3000
G1 X92.417 Y154.528 E.23672
G1 X92.446 Y154.57 E.0019
G1 X85.895 Y154.57 E.23901
G1 X85.904 Y154.559 E.00052
;WIPE_START
G1 X86.904 Y154.554 E-.5
;WIPE_END
G1 X93.912 Y154.57 F18000
G1 E.5 F1800
G1 F3000
G1 X93.942 Y154.528 E.00192
G1 X100.413 Y154.528 E.2361
G1 X100.443 Y154.57 E.00191
G1 X93.952 Y154.57 E.23684
;WIPE_START
G1 X93.942 Y154.528 E-.022
G1 X94.898 Y154.528 E-.478
;WIPE_END
G1 X101.919 Y154.57 F18000
G1 E.5 F1800
G1 F3000
G1 X101.95 Y154.528 E.00193
G1 X108.411 Y154.528 E.23573
G1 X108.441 Y154.57 E.00191
G1 X101.959 Y154.57 E.23649
;WIPE_START
G1 X101.95 Y154.528 E-.02196
G1 X102.906 Y154.528 E-.47804
;WIPE_END
G1 X109.915 Y154.57 F18000
G1 E.5 F1800
G1 F3000
G1 X109.95 Y154.528 E.00201
G1 X116.407 Y154.528 E.23559
G1 X116.437 Y154.57 E.00191
G1 X109.955 Y154.57 E.23649
;WIPE_START
G1 X109.95 Y154.528 E-.02165
G1 X110.906 Y154.528 E-.47835
;WIPE_END
G1 X117.935 Y154.57 F18000
G1 E.5 F1800
G1 F3000
G1 X117.966 Y154.528 E.00193
G1 X124.413 Y154.53 E.23523
G1 X124.441 Y154.57 E.00181
G1 X117.975 Y154.57 E.23593
;WIPE_START
G1 X117.966 Y154.528 E-.02194
G1 X118.922 Y154.528 E-.47806
;WIPE_END
G1 X125.944 Y154.57 F18000
G1 E.5 F1800
G1 F3000
G1 X125.974 Y154.528 E.00193
G1 X132.409 Y154.528 E.23477
G1 X132.439 Y154.57 E.00192
G1 X125.984 Y154.57 E.23553
;WIPE_START
G1 X125.974 Y154.528 E-.02195
G1 X126.931 Y154.528 E-.47805
;WIPE_END
G1 X133.953 Y154.57 F18000
G1 E.5 F1800
G1 F3000
G1 X133.984 Y154.528 E.00194
G1 X140.409 Y154.531 E.23442
G1 X140.437 Y154.57 E.00178
G1 X133.993 Y154.57 E.23512
;WIPE_START
G1 X133.984 Y154.528 E-.02191
G1 X134.94 Y154.528 E-.47809
;WIPE_END
G1 X141.961 Y154.57 F18000
G1 E.5 F1800
G1 F3000
G1 X141.992 Y154.528 E.00194
G1 X148.403 Y154.528 E.23391
G1 X148.434 Y154.57 E.00192
G1 X142.001 Y154.57 E.23472
;WIPE_START
G1 X141.992 Y154.528 E-.02188
G1 X142.949 Y154.528 E-.47812
;WIPE_END
G1 X149.968 Y154.57 F18000
G1 E.5 F1800
G1 F3000
G1 X149.999 Y154.528 E.00194
G1 X156.401 Y154.528 E.2336
G1 X156.432 Y154.57 E.00192
G1 X150.008 Y154.57 E.23439
;WIPE_START
G1 X149.999 Y154.528 E-.0219
G1 X150.955 Y154.528 E-.4781
;WIPE_END
G1 X157.974 Y154.57 F18000
G1 E.5 F1800
G1 F3000
G1 X158.006 Y154.528 E.00194
G1 X164.402 Y154.528 E.23336
G1 X164.432 Y154.57 E.00193
G1 X158.014 Y154.57 E.23417
;WIPE_START
G1 X158.006 Y154.528 E-.02188
G1 X158.962 Y154.528 E-.47812
;WIPE_END
G1 X165.985 Y154.57 F18000
G1 E.5 F1800
G1 F3000
G1 X166.017 Y154.528 E.00195
G1 X170.2 Y154.528 E.15263
G1 X170.316 Y154.503 E.00433
G1 X170.453 Y154.394 E.00638
G1 X170.5 Y154.31 E.00353
G1 X170.529 Y154.199 E.00417
G1 X170.529 Y149.999 E.15325
G1 X170.571 Y149.965 E.00199
G1 X170.571 Y154.57 E.16802
G1 X166.025 Y154.57 E.16588
;WIPE_START
G1 X166.017 Y154.528 E-.02185
G1 X166.973 Y154.528 E-.47815
;WIPE_END
G1 X170.571 Y148.264 F18000
G1 E.5 F1800
G1 F3000
G1 X170.529 Y148.231 E.00198
G1 X170.529 Y142 E.22734
G1 X170.571 Y141.967 E.00198
G1 X170.571 Y148.224 E.2283
;WIPE_START
G1 X170.529 Y148.231 E-.02173
G1 X170.529 Y147.275 E-.47827
;WIPE_END
G1 X170.571 Y140.266 F18000
